X: 772
T: Aird Ranters
R: strathspey
M: 4/4
K: Adorian
|:e<aa>e g<e e2|e<aa>e g<e d2|e<aa>e g<ee>d|c<AA>G c<A A2:|
|:c<AA>G c<AA>d|c<AA>G c<A A2:|

